icons/modern/snowman-without-snow.svg

<svg width="32" height="32" viewBox="0 0 32 32" fill="none" xmlns="http://www.w3.org/2000/svg">
<path d="M6 15.9948V13.5748" stroke="#433B6B" stroke-miterlimit="10" stroke-linecap="round" stroke-linejoin="round"/>
<path d="M4.07996 14.6049L9.23996 19.1149" stroke="#433B6B" stroke-miterlimit="10" stroke-linecap="round" stroke-linejoin="round"/>
<path d="M25.02 15.9948V13.5748" stroke="#433B6B" stroke-miterlimit="10" stroke-linecap="round" stroke-linejoin="round"/>
<path d="M26.94 14.6049L21.78 19.1149" stroke="#433B6B" stroke-miterlimit="10" stroke-linecap="round" stroke-linejoin="round"/>
<path d="M23.78 17.5449H26.02" stroke="#433B6B" stroke-miterlimit="10" stroke-linecap="round" stroke-linejoin="round"/>
<path d="M4.94995 17.5349H7.18995" stroke="#433B6B" stroke-miterlimit="10" stroke-linecap="round" stroke-linejoin="round"/>
<path d="M25.74 23.2349C25.74 28.8649 21.17 30.0349 15.54 30.0349C9.90997 30.0349 5.33997 28.8649 5.33997 23.2349C5.33997 17.6049 9.90997 13.0349 15.54 13.0349C21.17 13.0349 25.74 17.6049 25.74 23.2349Z" fill="url(#paint0_radial_18_15678)"/>
<path d="M17.03 25.0149C16.76 25.0149 16.54 24.7949 16.54 24.5249V23.5049C16.54 23.2349 16.76 23.0149 17.03 23.0149C17.3 23.0149 17.52 23.2349 17.52 23.5049V24.5249C17.52 24.7949 17.3 25.0149 17.03 25.0149Z" fill="url(#paint1_linear_18_15678)"/>
<path d="M19.0401 25.0249C18.7701 25.0249 18.55 24.8049 18.55 24.5349V23.5049C18.55 23.2349 18.7701 23.0149 19.0401 23.0149C19.3101 23.0149 19.5301 23.2349 19.5301 23.5049V24.5349C19.5301 24.7949 19.3101 25.0249 19.0401 25.0249Z" fill="url(#paint2_linear_18_15678)"/>
<path d="M21.03 25.0249C20.76 25.0249 20.54 24.8049 20.54 24.5349V23.5049C20.54 23.2349 20.76 23.0149 21.03 23.0149C21.3 23.0149 21.52 23.2349 21.52 23.5049V24.5349C21.52 24.7949 21.3 25.0249 21.03 25.0249Z" fill="url(#paint3_linear_18_15678)"/>
<path d="M20.89 24.0349H17.16C16.8 24.0349 16.51 23.7449 16.51 23.3849V18.0349H21.54V23.3849C21.54 23.7449 21.25 24.0349 20.89 24.0349Z" fill="url(#paint4_linear_18_15678)"/>
<path d="M22.66 15.6949C22.66 19.6249 19.47 20.0849 15.54 20.0849C11.61 20.0849 8.42004 19.6249 8.42004 15.6949C8.42004 11.7649 11.61 15.0549 15.54 15.0549C19.47 15.0549 22.66 11.7649 22.66 15.6949Z" fill="url(#paint5_linear_18_15678)"/>
<path d="M22.62 12.1548C22.62 16.0648 19.41 16.0048 15.49 16.0048C11.57 16.0048 8.44995 16.0748 8.44995 12.1548C8.44995 8.23483 11.62 5.07483 15.53 5.07483C19.44 5.07483 22.62 8.24483 22.62 12.1548Z" fill="url(#paint6_radial_18_15678)"/>
<path d="M15.56 5.04489L10.04 7.41489L9.25998 5.60489C8.81998 4.57489 9.28998 3.38489 10.32 2.94489L12.13 2.16489C13.16 1.72489 14.34 2.19489 14.78 3.22489L15.56 5.04489Z" fill="url(#paint7_linear_18_15678)"/>
<path d="M14.98 5.29486L10.62 7.17486C10.3 7.30486 9.92001 7.16486 9.79001 6.84486L9.26001 5.60486L14.79 3.23486L15.32 4.47486C15.45 4.78486 15.3 5.15486 14.98 5.29486Z" fill="url(#paint8_linear_18_15678)"/>
<path d="M16.1 5.61493L10.06 8.20493C9.70003 8.36493 9.28003 8.19493 9.12003 7.83493C8.97003 7.47493 9.13003 7.04493 9.50003 6.89493L15.54 4.30493C15.9 4.14493 16.32 4.31493 16.48 4.68493C16.63 5.03493 16.46 5.45493 16.1 5.61493Z" fill="url(#paint9_linear_18_15678)"/>
<mask id="path-17-inside-1_18_15678" fill="white">
<path d="M14.04 9.84488C13.81 9.84488 13.63 9.67488 13.63 9.46488V8.75488C13.63 8.54488 13.82 8.37488 14.04 8.37488C14.27 8.37488 14.45 8.54488 14.45 8.75488V9.46488C14.45 9.67488 14.26 9.84488 14.04 9.84488Z"/>
</mask>
<path d="M14.04 9.84488C13.81 9.84488 13.63 9.67488 13.63 9.46488V8.75488C13.63 8.54488 13.82 8.37488 14.04 8.37488C14.27 8.37488 14.45 8.54488 14.45 8.75488V9.46488C14.45 9.67488 14.26 9.84488 14.04 9.84488Z" fill="#433B6B"/>
<path d="M14.04 8.84488C14.295 8.84488 14.63 9.05763 14.63 9.46488H12.63C12.63 10.2921 13.325 10.8449 14.04 10.8449V8.84488ZM14.63 9.46488V8.75488H12.63V9.46488H14.63ZM14.63 8.75488C14.63 8.96249 14.5348 9.12561 14.4282 9.22328C14.3236 9.31917 14.1867 9.37488 14.04 9.37488V7.37488C13.3514 7.37488 12.63 7.91247 12.63 8.75488H14.63ZM14.04 9.37488C13.785 9.37488 13.45 9.16212 13.45 8.75488H15.45C15.45 7.92763 14.755 7.37488 14.04 7.37488V9.37488ZM13.45 8.75488V9.46488H15.45V8.75488H13.45ZM13.45 9.46488C13.45 9.25727 13.5452 9.09415 13.6518 8.99647C13.7564 8.90059 13.8933 8.84488 14.04 8.84488V10.8449C14.7286 10.8449 15.45 10.3073 15.45 9.46488H13.45Z" fill="#433B6B" mask="url(#path-17-inside-1_18_15678)"/>
<mask id="path-19-inside-2_18_15678" fill="white">
<path d="M17.04 9.84488C16.81 9.84488 16.63 9.67488 16.63 9.46488V8.75488C16.63 8.54488 16.82 8.37488 17.04 8.37488C17.27 8.37488 17.45 8.54488 17.45 8.75488V9.46488C17.45 9.67488 17.26 9.84488 17.04 9.84488Z"/>
</mask>
<path d="M17.04 9.84488C16.81 9.84488 16.63 9.67488 16.63 9.46488V8.75488C16.63 8.54488 16.82 8.37488 17.04 8.37488C17.27 8.37488 17.45 8.54488 17.45 8.75488V9.46488C17.45 9.67488 17.26 9.84488 17.04 9.84488Z" fill="#433B6B"/>
<path d="M17.04 8.84488C17.295 8.84488 17.63 9.05763 17.63 9.46488H15.63C15.63 10.2921 16.325 10.8449 17.04 10.8449V8.84488ZM17.63 9.46488V8.75488H15.63V9.46488H17.63ZM17.63 8.75488C17.63 8.96249 17.5348 9.12561 17.4282 9.22328C17.3236 9.31917 17.1867 9.37488 17.04 9.37488V7.37488C16.3514 7.37488 15.63 7.91247 15.63 8.75488H17.63ZM17.04 9.37488C16.785 9.37488 16.45 9.16212 16.45 8.75488H18.45C18.45 7.92763 17.755 7.37488 17.04 7.37488V9.37488ZM16.45 8.75488V9.46488H18.45V8.75488H16.45ZM16.45 9.46488C16.45 9.25727 16.5452 9.09415 16.6518 8.99647C16.7564 8.90059 16.8933 8.84488 17.04 8.84488V10.8449C17.7286 10.8449 18.45 10.3073 18.45 9.46488H16.45Z" fill="#433B6B" mask="url(#path-19-inside-2_18_15678)"/>
<path d="M19.6899 11.1348L15.6299 10.7148C15.1799 10.7148 14.8199 11.0748 14.8199 11.5248C14.8199 11.9748 15.1799 12.3348 15.6299 12.3348L19.6899 11.9148C19.9099 11.9148 20.0899 11.7348 20.0899 11.5148C20.0899 11.2948 19.9099 11.1348 19.6899 11.1348Z" fill="url(#paint10_linear_18_15678)"/>
<defs>
<radialGradient id="paint0_radial_18_15678" cx="0" cy="0" r="1" gradientUnits="userSpaceOnUse" gradientTransform="translate(20.3739 20.2228) scale(18.5752)">
<stop stop-color="#F1F2F2"/>
<stop offset="1" stop-color="#BCBEC0"/>
</radialGradient>
<linearGradient id="paint1_linear_18_15678" x1="17.5231" y1="25.3764" x2="16.8353" y2="23.4851" gradientUnits="userSpaceOnUse">
<stop offset="0.4804" stop-color="#1B75BB"/>
<stop offset="0.9888" stop-color="#2B3990"/>
</linearGradient>
<linearGradient id="paint2_linear_18_15678" x1="19.5343" y1="25.3833" x2="18.8431" y2="23.4824" gradientUnits="userSpaceOnUse">
<stop offset="0.4804" stop-color="#1B75BB"/>
<stop offset="0.9888" stop-color="#2B3990"/>
</linearGradient>
<linearGradient id="paint3_linear_18_15678" x1="21.5281" y1="25.3833" x2="20.8368" y2="23.4824" gradientUnits="userSpaceOnUse">
<stop offset="0.4804" stop-color="#1B75BB"/>
<stop offset="0.9888" stop-color="#2B3990"/>
</linearGradient>
<linearGradient id="paint4_linear_18_15678" x1="20.0263" y1="26.3058" x2="18.5637" y2="18.1949" gradientUnits="userSpaceOnUse">
<stop offset="0.4804" stop-color="#1B75BB"/>
<stop offset="0.9888" stop-color="#2B3990"/>
</linearGradient>
<linearGradient id="paint5_linear_18_15678" x1="27.7458" y1="19.9164" x2="3.09714" y2="12.9164" gradientUnits="userSpaceOnUse">
<stop offset="0.4804" stop-color="#1B75BB"/>
<stop offset="0.9888" stop-color="#2B3990"/>
</linearGradient>
<radialGradient id="paint6_radial_18_15678" cx="0" cy="0" r="1" gradientUnits="userSpaceOnUse" gradientTransform="translate(17.3739 7.93893) scale(10.7049)">
<stop stop-color="#F1F2F2"/>
<stop offset="1" stop-color="#BCBEC0"/>
</radialGradient>
<linearGradient id="paint7_linear_18_15678" x1="9.24583" y1="5.58033" x2="14.7722" y2="3.20921" gradientUnits="userSpaceOnUse">
<stop offset="0.00558659" stop-color="#513468"/>
<stop offset="1" stop-color="#1C1C1C"/>
</linearGradient>
<linearGradient id="paint8_linear_18_15678" x1="16.1742" y1="3.93816" x2="8.07201" y2="6.88076" gradientUnits="userSpaceOnUse">
<stop offset="0.4804" stop-color="#1B75BB"/>
<stop offset="0.9888" stop-color="#2B3990"/>
</linearGradient>
<linearGradient id="paint9_linear_18_15678" x1="9.11971" y1="7.83013" x2="16.4773" y2="4.67332" gradientUnits="userSpaceOnUse">
<stop offset="0.00558659" stop-color="#513468"/>
<stop offset="1" stop-color="#1C1C1C"/>
</linearGradient>
<linearGradient id="paint10_linear_18_15678" x1="14.8153" y1="11.5335" x2="20.0849" y2="11.5335" gradientUnits="userSpaceOnUse">
<stop stop-color="#FF2C00"/>
<stop offset="1" stop-color="#FF8C00"/>
</linearGradient>
</defs>
</svg>

<svg width="32" height="32" fill="none" xmlns="http://www.w3.org/2000/svg"><path d="M6 15.995v-2.42M4.08 14.605l5.16 4.51M25.02 15.995v-2.42M26.94 14.605l-5.16 4.51M23.78 17.545h2.24M4.95 17.535h2.24" stroke="#433B6B" stroke-miterlimit="10" stroke-linecap="round" stroke-linejoin="round"/><path d="M25.74 23.235c0 5.63-4.57 6.8-10.2 6.8-5.63 0-10.2-1.17-10.2-6.8s4.57-10.2 10.2-10.2c5.63 0 10.2 4.57 10.2 10.2Z" fill="url(#a)"/><path d="M17.03 25.015a.49.49 0 0 1-.49-.49v-1.02a.49.49 0 0 1 .98 0v1.02c0 .27-.22.49-.49.49Z" fill="url(#b)"/><path d="M19.04 25.025a.49.49 0 0 1-.49-.49v-1.03a.49.49 0 0 1 .98 0v1.03c0 .26-.22.49-.49.49Z" fill="url(#c)"/><path d="M21.03 25.025a.49.49 0 0 1-.49-.49v-1.03a.49.49 0 0 1 .98 0v1.03c0 .26-.22.49-.49.49Z" fill="url(#d)"/><path d="M20.89 24.035h-3.73c-.36 0-.65-.29-.65-.65v-5.35h5.03v5.35c0 .36-.29.65-.65.65Z" fill="url(#e)"/><path d="M22.66 15.695c0 3.93-3.19 4.39-7.12 4.39s-7.12-.46-7.12-4.39c0-3.93 3.19-.64 7.12-.64s7.12-3.29 7.12.64Z" fill="url(#f)"/><path d="M22.62 12.155c0 3.91-3.21 3.85-7.13 3.85s-7.04.07-7.04-3.85 3.17-7.08 7.08-7.08 7.09 3.17 7.09 7.08Z" fill="url(#g)"/><path d="m15.56 5.045-5.52 2.37-.78-1.81c-.44-1.03.03-2.22 1.06-2.66l1.81-.78c1.03-.44 2.21.03 2.65 1.06l.78 1.82Z" fill="url(#h)"/><path d="m14.98 5.295-4.36 1.88c-.32.13-.7-.01-.83-.33l-.53-1.24 5.53-2.37.53 1.24c.13.31-.02.68-.34.82Z" fill="url(#i)"/><path d="m16.1 5.615-6.04 2.59a.715.715 0 0 1-.94-.37c-.15-.36.01-.79.38-.94l6.04-2.59a.711.711 0 1 1 .56 1.31Z" fill="url(#j)"/><mask id="k" fill="#fff"><path d="M14.04 9.845c-.23 0-.41-.17-.41-.38v-.71c0-.21.19-.38.41-.38.23 0 .41.17.41.38v.71c0 .21-.19.38-.41.38Z"/></mask><path d="M14.04 9.845c-.23 0-.41-.17-.41-.38v-.71c0-.21.19-.38.41-.38.23 0 .41.17.41.38v.71c0 .21-.19.38-.41.38Z" fill="#433B6B"/><path d="M14.04 8.845c.255 0 .59.213.59.62h-2c0 .827.695 1.38 1.41 1.38v-2Zm.59.62v-.71h-2v.71h2Zm0-.71c0 .207-.095.37-.202.468a.573.573 0 0 1-.388.152v-2c-.689 0-1.41.537-1.41 1.38h2Zm-.59.62a.608.608 0 0 1-.59-.62h2c0-.827-.695-1.38-1.41-1.38v2Zm-.59-.62v.71h2v-.71h-2Zm0 .71c0-.208.095-.37.202-.469a.573.573 0 0 1 .388-.151v2c.689 0 1.41-.538 1.41-1.38h-2Z" fill="#433B6B" mask="url(#k)"/><mask id="l" fill="#fff"><path d="M17.04 9.845c-.23 0-.41-.17-.41-.38v-.71c0-.21.19-.38.41-.38.23 0 .41.17.41.38v.71c0 .21-.19.38-.41.38Z"/></mask><path d="M17.04 9.845c-.23 0-.41-.17-.41-.38v-.71c0-.21.19-.38.41-.38.23 0 .41.17.41.38v.71c0 .21-.19.38-.41.38Z" fill="#433B6B"/><path d="M17.04 8.845c.255 0 .59.213.59.62h-2c0 .827.695 1.38 1.41 1.38v-2Zm.59.62v-.71h-2v.71h2Zm0-.71c0 .207-.095.37-.202.468a.573.573 0 0 1-.388.152v-2c-.689 0-1.41.537-1.41 1.38h2Zm-.59.62a.608.608 0 0 1-.59-.62h2c0-.827-.695-1.38-1.41-1.38v2Zm-.59-.62v.71h2v-.71h-2Zm0 .71c0-.208.095-.37.202-.469a.573.573 0 0 1 .388-.151v2c.689 0 1.41-.538 1.41-1.38h-2Z" fill="#433B6B" mask="url(#l)"/><path d="m19.69 11.135-4.06-.42c-.45 0-.81.36-.81.81 0 .45.36.81.81.81l4.06-.42c.22 0 .4-.18.4-.4 0-.22-.18-.38-.4-.38Z" fill="url(#m)"/><defs><linearGradient id="b" x1="17.523" y1="25.376" x2="16.835" y2="23.485" gradientUnits="userSpaceOnUse"><stop offset=".48" stop-color="#1B75BB"/><stop offset=".989" stop-color="#2B3990"/></linearGradient><linearGradient id="c" x1="19.534" y1="25.383" x2="18.843" y2="23.482" gradientUnits="userSpaceOnUse"><stop offset=".48" stop-color="#1B75BB"/><stop offset=".989" stop-color="#2B3990"/></linearGradient><linearGradient id="d" x1="21.528" y1="25.383" x2="20.837" y2="23.482" gradientUnits="userSpaceOnUse"><stop offset=".48" stop-color="#1B75BB"/><stop offset=".989" stop-color="#2B3990"/></linearGradient><linearGradient id="e" x1="20.026" y1="26.306" x2="18.564" y2="18.195" gradientUnits="userSpaceOnUse"><stop offset=".48" stop-color="#1B75BB"/><stop offset=".989" stop-color="#2B3990"/></linearGradient><linearGradient id="f" x1="27.746" y1="19.916" x2="3.097" y2="12.916" gradientUnits="userSpaceOnUse"><stop offset=".48" stop-color="#1B75BB"/><stop offset=".989" stop-color="#2B3990"/></linearGradient><linearGradient id="h" x1="9.246" y1="5.58" x2="14.772" y2="3.209" gradientUnits="userSpaceOnUse"><stop offset=".006" stop-color="#513468"/><stop offset="1" stop-color="#1C1C1C"/></linearGradient><linearGradient id="i" x1="16.174" y1="3.938" x2="8.072" y2="6.881" gradientUnits="userSpaceOnUse"><stop offset=".48" stop-color="#1B75BB"/><stop offset=".989" stop-color="#2B3990"/></linearGradient><linearGradient id="j" x1="9.12" y1="7.83" x2="16.477" y2="4.673" gradientUnits="userSpaceOnUse"><stop offset=".006" stop-color="#513468"/><stop offset="1" stop-color="#1C1C1C"/></linearGradient><linearGradient id="m" x1="14.815" y1="11.534" x2="20.085" y2="11.534" gradientUnits="userSpaceOnUse"><stop stop-color="#FF2C00"/><stop offset="1" stop-color="#FF8C00"/></linearGradient><radialGradient id="a" cx="0" cy="0" r="1" gradientUnits="userSpaceOnUse" gradientTransform="translate(20.374 20.223) scale(18.5752)"><stop stop-color="#F1F2F2"/><stop offset="1" stop-color="#BCBEC0"/></radialGradient><radialGradient id="g" cx="0" cy="0" r="1" gradientUnits="userSpaceOnUse" gradientTransform="translate(17.374 7.939) scale(10.7049)"><stop stop-color="#F1F2F2"/><stop offset="1" stop-color="#BCBEC0"/></radialGradient></defs></svg>
